.local/share/icons/Gruvbox-Plus-Dark/panel/16/mullvad-tray-4.svg

<svg width="16" height="16" version="1.1" xmlns="http://www.w3.org/2000/svg">
  <defs>
    <style id="current-color-scheme" type="text/css">.ColorScheme-Text { color:#ebdbb2; } .ColorScheme-Highlight { color:#458588; } .ColorScheme-NeutralText { color:#fe8019; } .ColorScheme-PositiveText { color:#689d6a; } .ColorScheme-NegativeText { color:#fb4934; }</style>
  </defs>
  <path class="ColorScheme-Text" d="m8 4.238c0.04271-0.01375 0.08403-0.02771 0.1367-0.03906 0.4525-0.148 0.9807-0.1992 1.463-0.1992 0.5874 0 1.163 0.2812 1.615 0.7188 0.452 0.4374 0.7852 1.054 0.7852 1.756 0 0.5511-0.1533 1.172-0.4883 1.641v0.00195c1e-3 0.0064 8.59e-4 0.0133 0.0059 0.0293 4e-3 0.0152 0.01744 0.01051 0.02344 0.1289 9e-3 0.1768-0.1317 0.3812-0.2617 0.4492-0.062 0.0328-0.1208 0.05015-0.1758 0.06055 0.061 0.3616 0.1352 0.7591 0.2402 1.168 0.145 0.5699 0.3513 1.114 0.5723 1.402 0.203 0.264 0.0136 0.6465-0.3184 0.6445h-5.598c-0.2571-1e-3 -0.4487-0.2383-0.3906-0.4883 0.0688-0.298 0.6428-1.38 0.7188-1.584 0.076-0.2032 0.0497-0.297 0.0625-0.2754 0.0054 0.00885-0.0051 0.00168-0.0332-0.00977l-3.295 3.295c1.308 1.314 3.083 2.056 4.938 2.062 3.866 0 7-3.134 7-7s-3.134-7-7-7c-5.9e-6 1.079 8e-4 3.25-3e-6 3.238zm1.6 0.5625c-0.4189 0-0.8923 0.05476-1.215 0.1602-0.1612 0.0527-0.2801 0.1191-0.3359 0.168-0.0557 0.0488-0.04883 0.04861-0.04883 0.07031v1.086c0.398 0.5322 1.562 1.225 1.562 1.225 0.2261 0.1248 0.4682 0.2455 0.7422 0.3535 0.23 0.0736 0.3363 0.08246 0.4453 0.09766 8e-3 -0.0512-0.0064-0.08933 0.01563-0.1445 0.015-0.0382 0.0365-0.07367 0.0625-0.1055 0.191-0.2376 0.3711-0.8359 0.3711-1.236 0-0.4469-0.218-0.8686-0.541-1.182-0.323-0.3127-0.7456-0.4922-1.059-0.4922zm-1.6 2.662v0.5371l-1.092 1.092c0.06935 0.03357 0.129 0.07904 0.1699 0.1465 0.2016 0.3336 0.11 0.6776 2e-3 0.9668-0.108 0.29-0.4442 0.9331-0.4746 0.9941 0 0 3.854-1e-3 4.406 0-0.158-0.345-0.3454-0.6639-0.4434-1.047-0.138-0.5404-0.2182-1.044-0.2852-1.453l-0.4473-0.1758c-0.6967-0.3437-1.268-0.6466-1.836-1.061z" fill="currentColor" opacity=".3"/>
  <path class="ColorScheme-Text" d="m8 1c-2.831-1.404e-4 -5.383 1.705-6.467 4.32-1.084 2.616-0.4733 5.616 1.529 7.617l3.298-3.296c-0.0286-0.0147-0.1006-0.0438-0.3555-0.041-0.2266 0.0028-0.4098-0.1817-0.4043-0.4082l0.0039-0.2168c-0.4372-0.4161-1.416-0.9573-2.098-1.502-0.0841 0.0179-0.1699 0.027-0.2559 0.0273-0.6904 0-1.25-0.5596-1.25-1.25s0.5596-1.25 1.25-1.25c0.5939 1e-4 1.106 0.4181 1.225 1 0.3535-8e-4 1.762 0.0027 1.924 0v-0.6016c1e-4 -0.2209 0.1795-0.3984 0.4004-0.3984h0.5918c0.2112-0.3535 0.1944-0.6082 0.6094-0.75zm0 4.199c0 0.2209-0.1795 0.8008-0.4004 0.8008 0.1607-2e-4 0.3063 0.0962 0.3692 0.2441 0.0071 0.0105 0.0234 0.0227 0.0312 0.0332zm-3.629 1.602c-0.0384 0.0782-0.0849 0.1522-0.1387 0.2207 0.695 0.6077 2.059 1.496 2.059 1.496 0.0777 0.0773 0.1198 0.1814 0.1172 0.291l-2e-3 0.1562c0.1688 0.0411 0.3543 0.0609 0.4981 0.1309l1.096-1.096v-0.5391c-0.1729-0.1259-0.3459-0.2591-0.5215-0.4101-0.1113-0.1343-0.1984-0.2066-0.2676-0.2481 0 0-2.598-0.0031-2.84-0.0019z" fill="currentColor"/>
</svg>

<svg xmlns="http://www.w3.org/2000/svg" width="16" height="16" version="1.1">
 <defs>
  <style id="current-color-scheme" type="text/css">
   .ColorScheme-Text { color:#ebdbb2; } .ColorScheme-Highlight { color:#458588; }
  </style>
 </defs>
 <path style="opacity:0.3;fill:currentColor" class="ColorScheme-Text" d="M 8,1 A 7,7 0 0 0 1,8 7,7 0 0 0 8,15 7,7 0 0 0 15,8 7,7 0 0 0 8,1 Z M 9.5996,4 C 10.187,4 10.763,4.2812 11.215,4.7188 11.667,5.1562 12,5.7726 12,6.4746 12,7.0257 11.847,7.6464 11.512,8.1152 V 8.1172 C 11.513,8.1236 11.513,8.1305 11.518,8.1465 11.522,8.1617 11.535,8.157 11.541,8.2754 11.55,8.4522 11.409,8.6566 11.279,8.7246 11.217,8.7574 11.159,8.7748 11.104,8.7852 11.165,9.1468 11.239,9.5443 11.344,9.9531 11.489,10.523 11.695,11.067 11.916,11.355 12.119,11.619 11.93,12.002 11.598,12 H 6 C 5.7429,11.999 5.5513,11.76 5.6094,11.51 5.6782,11.212 6.2521,10.13 6.3281,9.9258 6.4041,9.7226 6.3778,9.6307 6.3906,9.6523 6.4042,9.6747 6.3615,9.5956 6.0039,9.5996 5.7773,9.6024 5.5941,9.4179 5.5996,9.1914 L 5.6035,8.9746 C 5.1663,8.5585 4.1878,8.0173 3.5059,7.4727 3.4218,7.4906 3.336,7.4997 3.25,7.5 2.5596,7.5 2,6.9404 2,6.25 2,5.5596 2.5596,5 3.25,5 3.8439,5.0001 4.3558,5.4181 4.4746,6 4.8281,5.9992 6.2368,6.0027 6.3984,6 V 5.3984 C 6.3985,5.1775 6.5779,5 6.7988,5 H 7.3906 C 7.626,4.6059 7.5466,4.3263 8.1367,4.1992 8.5892,4.0512 9.1175,4 9.5996,4 Z M 9.5996,4.8008 C 9.1807,4.8008 8.7071,4.8555 8.3848,4.9609 8.2236,5.0136 8.1046,5.08 8.0488,5.1289 7.9931,5.1777 8,5.1775 8,5.1992 8,5.4201 7.8205,6 7.5996,6 7.7603,5.9998 7.9059,6.0962 7.9688,6.2441 8.3355,6.7809 9.5625,7.5098 9.5625,7.5098 9.7886,7.6346 10.031,7.7553 10.305,7.8633 10.535,7.9369 10.641,7.9457 10.75,7.9609 10.758,7.9097 10.744,7.8716 10.766,7.8164 10.781,7.7782 10.802,7.7427 10.828,7.7109 11.019,7.4733 11.199,6.8753 11.199,6.4746 11.199,6.0277 10.981,5.6056 10.658,5.293 10.335,4.9803 9.913,4.8008 9.5996,4.8008 Z M 4.3711,6.8008 C 4.3327,6.879 4.2862,6.953 4.2324,7.0215 4.9274,7.6292 6.291,8.5176 6.291,8.5176 6.3687,8.5949 6.4108,8.699 6.4082,8.8086 L 6.4062,8.9648 C 6.6558,9.0256 6.9506,9.0311 7.0762,9.2383 7.2778,9.5719 7.1861,9.9158 7.0781,10.205 6.9701,10.495 6.6339,11.138 6.6035,11.199 6.6035,11.199 10.457,11.198 11.01,11.199 10.852,10.854 10.666,10.535 10.568,10.152 10.43,9.6116 10.35,9.108 10.283,8.6992 L 9.8359,8.5234 C 8.9271,8.075 8.2308,7.6981 7.4785,7.0508 7.3672,6.9165 7.2801,6.8442 7.2109,6.8027 7.2109,6.8027 4.613,6.7996 4.3711,6.8008 Z"/>
 <path style="fill:currentColor" class="ColorScheme-Text" d="M 8,1 A 7,7 0 0 0 1.5332,5.3203 7,7 0 0 0 3.0508,12.949 L 6.3594,9.6406 C 6.3308,9.6259 6.2588,9.5968 6.0039,9.5996 5.7773,9.6024 5.5941,9.4179 5.5996,9.1914 L 5.6035,8.9746 C 5.1663,8.5585 4.1878,8.0173 3.5059,7.4727 3.4218,7.4906 3.336,7.4997 3.25,7.5 2.5596,7.5 2,6.9404 2,6.25 2,5.5596 2.5596,5 3.25,5 3.8439,5.0001 4.3558,5.4181 4.4746,6 4.8281,5.9992 6.2368,6.0027 6.3984,6 V 5.3984 C 6.3985,5.1775 6.5779,5 6.7988,5 H 7.3906 C 7.6018,4.6465 7.585,4.3918 8,4.25 Z M 8,5.1992 C 8,5.4201 7.8205,6 7.5996,6 7.7603,5.9998 7.9059,6.0962 7.9688,6.2441 7.9759,6.2546 7.9922,6.2668 8,6.2773 Z M 4.3711,6.8008 C 4.3327,6.879 4.2862,6.953 4.2324,7.0215 4.9274,7.6292 6.291,8.5176 6.291,8.5176 6.3687,8.5949 6.4108,8.699 6.4082,8.8086 L 6.4062,8.9648 C 6.575,9.0059 6.7605,9.0257 6.9043,9.0957 L 8,8 V 7.4609 C 7.8271,7.335 7.6541,7.2018 7.4785,7.0508 7.3672,6.9165 7.2801,6.8442 7.2109,6.8027 7.2109,6.8027 4.613,6.7996 4.3711,6.8008 Z"/>
</svg>
